app/images/dest/logo.svg

<svg width="208" height="24" viewBox="0 0 208 24" fill="none" xmlns="http://www.w3.org/2000/svg">
<path d="M33.966 11.004V21H36.164V16.688H40.21V21H42.408V11.004H40.21V14.84H36.164V11.004H33.966Z" fill="#6DC734"/>
<path d="M46.443 11.004V21H54.031V19.152H48.641V16.702H53.485V14.994H48.641V12.852H53.919V11.004H46.443Z" fill="#6DC734"/>
<path d="M60.1411 17.136L61.4431 13.468H61.4711L62.7311 17.136H60.1411ZM60.3511 11.004L56.5711 21H58.7831L59.5671 18.774H63.3051L64.0611 21H66.3431L62.6051 11.004H60.3511Z" fill="#6DC734"/>
<path d="M69.3051 11.004V21H76.3751V19.152H71.5031V11.004H69.3051Z" fill="#6DC734"/>
<path d="M80.6307 12.852V21H82.8287V12.852H85.8247V11.004H77.6347V12.852H80.6307Z" fill="#6DC734"/>
<path d="M89.0773 11.004V21H91.2753V16.688H95.3213V21H97.5193V11.004H95.3213V14.84H91.2753V11.004H89.0773Z" fill="#6DC734"/>
<path d="M104.144 17.108V21H106.342V17.164L110.052 11.004H107.602L105.278 14.952L102.94 11.004H100.476L104.144 17.108Z" fill="#6DC734"/>
<path d="M120.487 17.682H118.359C118.349 18.298 118.461 18.83 118.695 19.278C118.928 19.726 119.241 20.0947 119.633 20.384C120.034 20.6733 120.491 20.8833 121.005 21.014C121.527 21.154 122.064 21.224 122.615 21.224C123.296 21.224 123.893 21.1447 124.407 20.986C124.929 20.8273 125.363 20.608 125.709 20.328C126.063 20.0387 126.329 19.698 126.507 19.306C126.684 18.914 126.773 18.4893 126.773 18.032C126.773 17.472 126.651 17.0147 126.409 16.66C126.175 16.296 125.895 16.0067 125.569 15.792C125.242 15.5773 124.911 15.4233 124.575 15.33C124.248 15.2273 123.991 15.1573 123.805 15.12C123.179 14.9613 122.671 14.8307 122.279 14.728C121.896 14.6253 121.593 14.5227 121.369 14.42C121.154 14.3173 121.009 14.2053 120.935 14.084C120.86 13.9627 120.823 13.804 120.823 13.608C120.823 13.3933 120.869 13.216 120.963 13.076C121.056 12.936 121.173 12.8193 121.313 12.726C121.462 12.6327 121.625 12.5673 121.803 12.53C121.98 12.4927 122.157 12.474 122.335 12.474C122.605 12.474 122.853 12.4973 123.077 12.544C123.31 12.5907 123.515 12.67 123.693 12.782C123.87 12.894 124.01 13.048 124.113 13.244C124.225 13.44 124.29 13.6873 124.309 13.986H126.437C126.437 13.4073 126.325 12.9173 126.101 12.516C125.886 12.1053 125.592 11.7693 125.219 11.508C124.845 11.2467 124.416 11.06 123.931 10.948C123.455 10.8267 122.955 10.766 122.433 10.766C121.985 10.766 121.537 10.8267 121.089 10.948C120.641 11.0693 120.239 11.256 119.885 11.508C119.53 11.76 119.241 12.0773 119.017 12.46C118.802 12.8333 118.695 13.2767 118.695 13.79C118.695 14.2473 118.779 14.6393 118.947 14.966C119.124 15.2833 119.353 15.5493 119.633 15.764C119.913 15.9787 120.23 16.156 120.585 16.296C120.939 16.4267 121.303 16.5387 121.677 16.632C122.041 16.7347 122.4 16.828 122.755 16.912C123.109 16.996 123.427 17.094 123.707 17.206C123.987 17.318 124.211 17.458 124.379 17.626C124.556 17.794 124.645 18.0133 124.645 18.284C124.645 18.536 124.579 18.746 124.449 18.914C124.318 19.0727 124.155 19.1987 123.959 19.292C123.763 19.3853 123.553 19.4507 123.329 19.488C123.105 19.516 122.895 19.53 122.699 19.53C122.409 19.53 122.129 19.4973 121.859 19.432C121.588 19.3573 121.35 19.25 121.145 19.11C120.949 18.9607 120.79 18.7693 120.669 18.536C120.547 18.3027 120.487 18.018 120.487 17.682Z" fill="#6DC734"/>
<path d="M139.7 21L142.388 11.004H140.232L138.594 17.892H138.566L136.858 11.004H134.8L133.064 17.808H133.036L131.454 11.004H129.256L131.902 21H134.128L135.794 14.196H135.822L137.516 21H139.7Z" fill="#6DC734"/>
<path d="M145.501 11.004V21H147.699V11.004H145.501Z" fill="#6DC734"/>
<path d="M153.942 12.852V21H156.14V12.852H159.136V11.004H150.946V12.852H153.942Z" fill="#6DC734"/>
<path d="M169.053 14.364H171.181C171.115 13.7853 170.957 13.272 170.705 12.824C170.453 12.376 170.131 12.0027 169.739 11.704C169.356 11.396 168.917 11.1627 168.423 11.004C167.937 10.8453 167.419 10.766 166.869 10.766C166.103 10.766 165.413 10.9013 164.797 11.172C164.19 11.4427 163.677 11.816 163.257 12.292C162.837 12.768 162.515 13.328 162.291 13.972C162.067 14.6067 161.955 15.2973 161.955 16.044C161.955 16.772 162.067 17.4533 162.291 18.088C162.515 18.7133 162.837 19.2593 163.257 19.726C163.677 20.1927 164.19 20.5613 164.797 20.832C165.413 21.0933 166.103 21.224 166.869 21.224C167.485 21.224 168.049 21.1307 168.563 20.944C169.076 20.7573 169.524 20.4867 169.907 20.132C170.289 19.7773 170.597 19.348 170.831 18.844C171.064 18.34 171.209 17.7753 171.265 17.15H169.137C169.053 17.822 168.819 18.3633 168.437 18.774C168.063 19.1847 167.541 19.39 166.869 19.39C166.374 19.39 165.954 19.2967 165.609 19.11C165.263 18.914 164.983 18.6573 164.769 18.34C164.554 18.0227 164.395 17.668 164.293 17.276C164.199 16.8747 164.153 16.464 164.153 16.044C164.153 15.6053 164.199 15.1807 164.293 14.77C164.395 14.3593 164.554 13.9953 164.769 13.678C164.983 13.3513 165.263 13.0947 165.609 12.908C165.954 12.712 166.374 12.614 166.869 12.614C167.139 12.614 167.396 12.6607 167.639 12.754C167.891 12.838 168.115 12.9593 168.311 13.118C168.507 13.2767 168.67 13.4633 168.801 13.678C168.931 13.8833 169.015 14.112 169.053 14.364Z" fill="#6DC734"/>
<path d="M174.866 11.004V21H177.064V16.688H181.11V21H183.308V11.004H181.11V14.84H177.064V11.004H174.866Z" fill="#6DC734"/>
<path d="M187.343 11.004V21H194.931V19.152H189.541V16.702H194.385V14.994H189.541V12.852H194.819V11.004H187.343Z" fill="#6DC734"/>
<path d="M200.719 15.526V12.712H203.127C203.631 12.712 204.009 12.824 204.261 13.048C204.513 13.2627 204.639 13.6127 204.639 14.098C204.639 14.602 204.513 14.966 204.261 15.19C204.009 15.414 203.631 15.526 203.127 15.526H200.719ZM198.521 11.004V21H200.719V17.094H202.917C203.467 17.094 203.864 17.2153 204.107 17.458C204.349 17.7007 204.508 18.0833 204.583 18.606C204.639 19.0073 204.681 19.4273 204.709 19.866C204.737 20.3047 204.811 20.6827 204.933 21H207.131C207.028 20.86 206.949 20.692 206.893 20.496C206.846 20.2907 206.809 20.076 206.781 19.852C206.762 19.628 206.748 19.4087 206.739 19.194C206.729 18.9793 206.72 18.7927 206.711 18.634C206.692 18.382 206.655 18.13 206.599 17.878C206.552 17.626 206.473 17.3973 206.361 17.192C206.249 16.9773 206.104 16.7953 205.927 16.646C205.749 16.4873 205.525 16.3707 205.255 16.296V16.268C205.815 16.044 206.216 15.7173 206.459 15.288C206.711 14.8587 206.837 14.35 206.837 13.762C206.837 13.3793 206.767 13.0247 206.627 12.698C206.496 12.362 206.3 12.068 206.039 11.816C205.787 11.564 205.479 11.368 205.115 11.228C204.76 11.0787 204.359 11.004 203.911 11.004H198.521Z" fill="#6DC734"/>
<g clip-path="url(#clip0_36615_2)">
<path d="M17.0984 8.16492H7.90162C3.53781 8.16492 0 11.7087 0 16.0817C0 20.4547 3.53781 24 7.90162 24H17.0984C21.4622 24 25 20.4547 25 16.0817C25 11.7087 21.4622 8.16492 17.0984 8.16492ZM16.9261 23.0921C13.0637 23.0921 9.93201 19.9537 9.93201 16.0832C9.93201 12.2127 13.0637 9.07436 16.9261 9.07436C20.7885 9.07436 23.9202 12.2127 23.9202 16.0832C23.9202 19.9537 20.7885 23.0921 16.9261 23.0921Z" fill="#6DC734"/>
<path d="M16.0047 4.68437C16.0047 5.68167 16.2632 6.61732 16.7169 7.42811C14.5112 7.04738 12.833 5.1206 12.833 2.80075C12.833 2.50942 12.8592 2.22426 12.9115 1.9468C13.3422 1.81578 13.8005 1.74487 14.2743 1.74487C15.0895 1.74487 15.8571 1.95451 16.5246 2.32137C16.1909 3.03967 16.0047 3.83967 16.0047 4.68437Z" fill="#6DC734"/>
<path d="M22.2067 2.80077C22.2067 4.92023 20.8069 6.71137 18.8827 7.29557C18.552 7.39576 18.2074 7.46204 17.849 7.48516H17.8475C17.2676 6.70366 16.9246 5.7341 16.9246 4.68439C16.9246 4.03391 17.0568 3.41426 17.2953 2.8501C17.9674 1.26243 19.4856 0.123314 21.2838 0C21.8636 0.781503 22.2067 1.75106 22.2067 2.80077Z" fill="#6DC734"/>
</g>
<defs>
<clipPath id="clip0_36615_2">
<rect width="25" height="24" fill="white"/>
</clipPath>
</defs>
</svg>

<svg width="208" height="24" fill="none" xmlns="http://www.w3.org/2000/svg"><path d="M33.966 11.004V21h2.198v-4.312h4.046V21h2.198v-9.996H40.21v3.836h-4.046v-3.836h-2.198zm12.477 0V21h7.588v-1.848h-5.39v-2.45h4.844v-1.708h-4.844v-2.142h5.278v-1.848h-7.476zm13.698 6.132l1.302-3.668h.028l1.26 3.668h-2.59zm.21-6.132L56.571 21h2.212l.784-2.226h3.738L64.061 21h2.282l-3.738-9.996h-2.254zm8.954 0V21h7.07v-1.848h-4.872v-8.148h-2.198zm11.325 1.848V21h2.199v-8.148h2.996v-1.848h-8.19v1.848h2.996zm8.447-1.848V21h2.198v-4.312h4.046V21h2.198v-9.996h-2.198v3.836h-4.046v-3.836h-2.198zm15.067 6.104V21h2.198v-3.836l3.71-6.16h-2.45l-2.324 3.948-2.338-3.948h-2.464l3.668 6.104zm16.343.574h-2.128c-.01.616.102 1.148.336 1.596.233.448.546.817.938 1.106.401.29.858.5 1.372.63a6.19 6.19 0 001.61.21c.681 0 1.278-.08 1.792-.238.522-.159.956-.378 1.302-.658.354-.29.62-.63.798-1.022a3.06 3.06 0 00.266-1.274c0-.56-.122-1.017-.364-1.372a2.892 2.892 0 00-.84-.868 3.535 3.535 0 00-.994-.462 8.004 8.004 0 00-.77-.21 271.08 271.08 0 01-1.526-.392 5.962 5.962 0 01-.91-.308c-.215-.103-.36-.215-.434-.336a.895.895 0 01-.112-.476c0-.215.046-.392.14-.532.093-.14.21-.257.35-.35a1.49 1.49 0 01.49-.196c.177-.037.354-.056.532-.056.27 0 .518.023.742.07.233.047.438.126.616.238.177.112.317.266.42.462.112.196.177.443.196.742h2.128c0-.579-.112-1.069-.336-1.47a2.793 2.793 0 00-.882-1.008 3.661 3.661 0 00-1.288-.56 6.048 6.048 0 00-1.498-.182c-.448 0-.896.06-1.344.182-.448.121-.85.308-1.204.56-.355.252-.644.57-.868.952-.215.373-.322.817-.322 1.33 0 .457.084.85.252 1.176.177.317.406.583.686.798.28.215.597.392.952.532.354.13.718.243 1.092.336.364.103.723.196 1.078.28.354.084.672.182.952.294.28.112.504.252.672.42a.866.866 0 01.266.658 1 1 0 01-.196.63 1.412 1.412 0 01-.49.378 2.36 2.36 0 01-.63.196 5.095 5.095 0 01-.63.042c-.29 0-.57-.033-.84-.098a2.374 2.374 0 01-.714-.322 1.685 1.685 0 01-.476-.574c-.122-.233-.182-.518-.182-.854zM139.7 21l2.688-9.996h-2.156l-1.638 6.888h-.028l-1.708-6.888H134.8l-1.736 6.804h-.028l-1.582-6.804h-2.198L131.902 21h2.226l1.666-6.804h.028L137.516 21h2.184zm5.801-9.996V21h2.198v-9.996h-2.198zm8.441 1.848V21h2.198v-8.148h2.996v-1.848h-8.19v1.848h2.996zm15.111 1.512h2.128a4.04 4.04 0 00-.476-1.54 3.62 3.62 0 00-.966-1.12 4.06 4.06 0 00-1.316-.7 4.976 4.976 0 00-1.554-.238c-.766 0-1.456.135-2.072.406a4.43 4.43 0 00-1.54 1.12 4.981 4.981 0 00-.966 1.68 6.185 6.185 0 00-.336 2.072c0 .728.112 1.41.336 2.044a4.88 4.88 0 00.966 1.638c.42.467.933.835 1.54 1.106.616.261 1.306.392 2.072.392.616 0 1.18-.093 1.694-.28a3.934 3.934 0 001.344-.812c.382-.355.69-.784.924-1.288a5.09 5.09 0 00.434-1.694h-2.128c-.084.672-.318 1.213-.7 1.624-.374.41-.896.616-1.568.616-.495 0-.915-.093-1.26-.28a2.457 2.457 0 01-.84-.77 3.413 3.413 0 01-.476-1.064 5.692 5.692 0 010-2.506c.102-.41.261-.775.476-1.092.214-.327.494-.583.84-.77.345-.196.765-.294 1.26-.294.27 0 .527.047.77.14a2.125 2.125 0 011.162.924c.13.205.214.434.252.686zm5.813-3.36V21h2.198v-4.312h4.046V21h2.198v-9.996h-2.198v3.836h-4.046v-3.836h-2.198zm12.477 0V21h7.588v-1.848h-5.39v-2.45h4.844v-1.708h-4.844v-2.142h5.278v-1.848h-7.476zm13.376 4.522v-2.814h2.408c.504 0 .882.112 1.134.336.252.215.378.565.378 1.05 0 .504-.126.868-.378 1.092-.252.224-.63.336-1.134.336h-2.408zm-2.198-4.522V21h2.198v-3.906h2.198c.55 0 .947.121 1.19.364.242.243.401.625.476 1.148.056.401.098.821.126 1.26.028.439.102.817.224 1.134h2.198a1.57 1.57 0 01-.238-.504 6.499 6.499 0 01-.112-.644 15.437 15.437 0 01-.042-.658c-.01-.215-.019-.401-.028-.56a5.326 5.326 0 00-.112-.756 2.304 2.304 0 00-.238-.686 1.788 1.788 0 00-.434-.546 1.655 1.655 0 00-.672-.35v-.028c.56-.224.961-.55 1.204-.98.252-.43.378-.938.378-1.526 0-.383-.07-.737-.21-1.064a2.45 2.45 0 00-.588-.882 2.614 2.614 0 00-.924-.588 3.078 3.078 0 00-1.204-.224h-5.39z" fill="#6DC734"/><g clip-path="url(#clip0_36615_2)" fill="#6DC734"><path d="M17.098 8.165H7.902C3.538 8.165 0 11.709 0 16.082 0 20.455 3.538 24 7.902 24h9.196C21.462 24 25 20.455 25 16.082s-3.538-7.917-7.902-7.917zm-.172 14.927c-3.862 0-6.994-3.138-6.994-7.009 0-3.87 3.132-7.009 6.994-7.009 3.863 0 6.994 3.139 6.994 7.01 0 3.87-3.132 7.008-6.994 7.008zm-.921-18.408a5.6 5.6 0 00.712 2.744 4.694 4.694 0 01-3.805-5.481 4.68 4.68 0 013.613.374 5.592 5.592 0 00-.52 2.363zM22.207 2.8c0 2.12-1.4 3.911-3.324 4.496-.331.1-.676.166-1.034.19h-.002a4.684 4.684 0 01-.922-2.802A4.685 4.685 0 0121.285 0a4.69 4.69 0 01.922 2.8z"/></g><defs><clipPath id="clip0_36615_2"><path fill="#fff" d="M0 0h25v24H0z"/></clipPath></defs></svg>
